X:1
T:THE BILLYGOAT
M:2/4
Q:1/4=120
K:F
F6F2|f2f2d2d2|c4B2B2|A2A2G2G2|F4F2F2|f2f2d2d2|
c4B2B2|A2A2G2G2|F4A2A2|c2c2B2B2|G4A2c2|f2c2B2B2|
G4F2F2|f2f2d2d2|c4B2B2|A2A2G2G2|F7/2||
